X:1
T:Ave Regina coelorum - Fux
T:#
%%score [ 1 2 3 4 ]
L:1/8
Q:1/4=200
M:none
K:C
V:1 treble nm="Soprano" snm="S"
V:2 treble nm="Alto" snm="A"
V:3 treble-8 nm="Tenor" snm="T"
V:4 bass nm="Bass" snm="B"
V:1
"^Ave Regina coelorum""^Johann Joseph Fux\n (1660-1741)" A16 | F4 (D2 E2 F2 G2 A2 _B2 | c16 | %3
w: A-|ve, A\- * * * * *||
 _B8) A4 G4 | F8 E8 | D8 z8 |[M:4/2] z4 c4 c4 c4 | B4 G4 (A2 B2) (c4- | c2 B2 A2 G2 A4 B4- | %9
w: * ve Re-|gi\- *|na,|A- ve Re-|gi- na coe\- * lo\-||
 B4 A8 ^G4) | A16 | z8 z4 A4- | A4 A4 d6 d2 | c8 A6 G2 | F8 E4 E4- | E2 F2 (G2 A2 B4 c4- | %16
w: |rum:|A-|* ve Do- mi-|na An- ge-|lo- rum, An\-|* ge- lo\- * * *|
 c4 B4) c8 | z16 | z8 z4 c4- | c4 c4 c4 G4 | A4 F4 (D2 E2 F2 G2) | A8 z8 | z16 | z16 | %24
w: * * rum:||ex|* qua mun- do|lux est or\- * * *|ta.|||
 z4 (F6 G2 A2 B2 | c12) B4 | z4 c8 B4 | c8 B8 | c6 B2 (A4 B4) | c8 z8 | z8 z4 G4- | %31
w: Gau\- * * *|* de,|gau- de|Vir- go|glo- ri- o\- *|sa,|su\-|
 G4 A4 (_B2 c2 d2 c2 | _B8) A8 | _B4 c4 (c2 B2 A4- | A2 =B2 c4 d8- | d8) c8 | A16 | A16 | z16 | %39
w: * per o\- * * *|* mnes|spe- ci- o\- * *||* sa:|Va-|le||
 z16 | z8 A8 | (d12 c4) | A4 B4 c8 | B8 A4 (B4- | B4 A8 ^G4) | A16 | z16 | c4 d4 _B8 | %48
w: |O|val\- *|de de- co-|ra, de- co\-||ra,||et pro no-|
 A4 A4 A4 (F2 E2) | (F4 G4 A8) | G8 F8 | z8 z4 A4- | A4 F4 (F4 G4) | A4 c4 c4[Q:1/4=198] d4 | %54
w: bis Chri- stum ex\- *|o\- * *|* ra,|et|* pro no\- *|bis Chri- stum ex-|
[Q:1/4=192] _B8[Q:1/4=186] A8- |[Q:1/4=176] A16 |[Q:1/4=170] A16 |] %57
w: o- ra.|||
V:2
 z16 | D16 | C4 (A,2 B,2 C2 D2 E2 F2 | G2 F2 D2 E2 F4) E4- | E2 D2 (D8 ^C4) | D4 F4 F4 F4 | %6
w: |A-|ve, A\- * * * * *|* * * * * ve|* Re- gi\- *|na, A- ve Re-|
[M:4/2] E8 E4 E4 | (D6 E2 F4 E2 D2 | C4 D4 E4 F4) | E16 | z4 E8 E4 | A6 G2 F8 | E2 A,2 (A8 ^G4) | %13
w: gi- na coe-|lo\- * * * *||rum:|A- ve|Do- mi- na|An- ge- lo\- *|
 A4 (A,2 B,2 C2 B,2 C4- | C4) B,4 C6 D2 | E4 E4 E4 (D2 C2 | D8) E4 E4- | E4 E4 A8 | A4 A8 G4 | %19
w: rum, A\- * * * *|* ve Do- mi-|na An- ge- lo\- *|* rum: Sal\-|* ve ra-|dix, sal- ve|
 (A2 G2 F8 E4) | F4 F8 F4 | F4 C4 D6 E2 | (^C2 D2 E8 D4-) | (D4 ^C4) D4 (D4- | D2 E2 F2 G2 A8) | %25
w: por\- * * *|ta, ex qua|mun- do lux est|or\- * * *|* * ta. Gau\-||
 G16 | z16 | z16 | z4 E8 D4 | E4 C4 D4 E4 | F8 E8- | E8 z4 D4- | D4 E4 (F2 G2 A2 G2 | %33
w: de,|||gau- de|Vir- go glo- ri-|o- sa,|* su\-|* per o\- * * *|
 F4) E2 D2 C4 C4 | (D4 E4 F6 EF | G4 F8 E4) | F8 F8- | F8 E8 | z4 E4 (A8- | A4 G4) E4 F4 | %40
w: * mnes * spe- ci-|o\- * * * *||sa: Va\-|* le|O val\-|* * de de-|
 (G12 F2 E2 | F8) E8 | C4 (G8 F4) | D4 E4 F8 | E16 | z16 | z8 z4 F4- | F4 (D2 C2) (D4 E4) | %48
w: co\- * *|* ra,|O val\- *|de de- co-|ra,||et|* pro * no\- *|
 F4 F4 F,4 (_B,2 C2) | (D4 E4) F2 C2 F4- | (F4 E4) F8 | F4 (D2 C2) D4 E4 | (F6 E2 D8) | %53
w: bis Chri- stum ex\- *|o\- * ra, ex- o\-|* * ra,|et pro * no- bis|Chri\- * *|
 C4 A,4 (A8- | A4 G8 F4 | E16) | D16 |] %57
w: stum, ex- o\-|||ra.|
V:3
 z16 | z16 | z16 | z16 | A16 | F4 (D2 E2 F2 G2 A2 B2) |[M:4/2][K:treble-8] (c6 BA) G6 A2 | %7
w: ||||A-|ve, A\- * * * * *|* * * ve Re-|
 (B2 c2 d8 c2 B2) | A6 B2 (c4 B4 | c8 B8) | A8 z4 A4- | A4 A4 d6 d2 | c8 B4 B4 | (A4 e6 d2 c2 B2 | %14
w: gi\- * * * *|na coe- lo\- *||rum: A\-|* ve Do- mi-|na An- ge-|lo\- * * * *|
 A2 G2 F2 G2 A8) | G8 z8 | z4 G8 G4 | c8 c4 c4- | c4 A4 (c8 | A8 G8) | F8 z4 A4- | A4 A4 A4 G4 | %22
w: |rum:|Sal- ve|ra- dix, sal\-|* ve por\-||ta, ex|* qua mun- do|
 A4 E4 F8 | E8 D8 | z4 (A6 B2 c2 d2 | e8) d8 | z16 | z4 A8 ^G4 | (A6 =G2 F8) | E4 A6 B2 c4- | %30
w: lux est or\-|* ta.|Gau\- * * *|* de,||gau- de|Vir\- * *|go glo- ri- o\-|
 (c4 B4) c8- | c8 z4 _B4- | B4 c4 (d2 e2 f2 e2 | d4 c2 _B2 A4) F4 | A4 G4 (A6 GA | _B6 A2 G8) | %36
w: * * sa,|* su\-|* per o\- * * *|* * * * mnes|spe- ci- o\- * *||
 F4 (D6 E2 F2 G2 | A4 d8) ^c4 | z8 z4 A4 | (e12 d4) | B4 c4 (d6 c2 | d2 c2 A6 B2 c2 d2) | %42
w: sa: Va\- * * *|* * le|O|val\- *|de de- co\- *||
 e4 E4 (G4 A4) | B4 c4 (d4 c2 B2 | c8 B8) | A8 c4 d4 | _B8 A8 | z16 | z4 c4 c4 d4 | _B8 A4 F4 | %50
w: ra, O val\- *|de de- co\- * *||ra, et pro|no- bis||Chri- stum ex-|o- ra, ex-|
 c8 F8- | F8 z8 | F4 A4 _B8 | A12 f4 | d4 e4 (^c4 d4- | d4 ^c2 B2 c8) | d16 |] %57
w: o- ra,||et pro no-|bis Chri-|stum ex- o\- *||ra.|
V:4
 z16 | z16 | z16 | z16 | z16 | D,16 |[M:4/2] C,4 (A,,2 B,,2 C,2 D,2 E,2 F,2 | G,6 F,E,) D,4 E,4 | %8
w: |||||A-|ve, A\- * * * * *|* * * ve Re-|
 (F,6 E,2) C,4 D,4 | E,16 | A,,8 z8 | z16 | z16 | z4 A,,8 A,,4 | D,6 D,2 C,4 (A,,2 B,,2 | %15
w: gi\- * na coe-|lo-|rum:|||A- ve|Do- mi- na An\- *|
 C,2 D,2 E,2 F,2 G,4) A,4 | G,8 C,4 C,4- | C,4 C,4 F,8 | F,4 F,8 E,4 | F,8 C,8 | z4 D,8 D,4 | %21
w: * * * * * ge-|lo- rum: Sal\-|* ve ra-|dix, sal- ve|por- ta,|ex qua|
 D,4 A,,4 _B,,4 B,,4 | A,,16 | A,,8 z4 (_B,,4- | B,,2 C,2 D,2 E,2 F,8) | (C,2 D,2 E,2 F,2 G,8) | %26
w: mun- do lux est|or-|ta. Gau\-||de, * * * *|
 z4 A,8 ^G,4 | A,8 E,8 | A,,4 C,4 D,8 | A,,4 F,8 E,4 | D,8 C,8- | C,8 z8 | z8 z4 D,4- | %33
w: gau- de|Vir- go|glo- ri- o-|sa, glo- ri-|o- sa,||su\-|
 D,4 E,4 (F,2 G,2 A,2 G,2 | F,4) E,4 D,4 C,4 | (_B,,8 C,8) | F,8 D,8- | D,8 A,8 | z16 | z16 | z16 | %41
w: * per o\- * * *|* mnes spe- ci-|o\- *|sa: Va\-|* le||||
 z4 D,4 (A,8- | A,4 G,4) E,4 F,4 | (G,8 D,8) | E,16 | z4 F,8 (D,2 C,2) | (D,4 E,4) F,4 F,4 | %47
w: O val\-|* * de de-|co\- *|ra,|et pro *|no\- * bis Chri-|
 A,4 _B,4 G,8 | F,8 z8 | z16 | z8 z4 D,4- | D,4 (_B,,2 A,,2) (B,,4 C,4) | D,4 (D,8 E,4) | %53
w: stum ex- o-|ra,||et|* pro * no\- *|bis Chri\- *|
 F,12 D,4 | (G,8 A,8- | A,16) | D,16 |] %57
w: stum ex-|o\- *||ra.|

